!!!!SEGMENT: 033-1a-Sm-003.krn
!!!COM: Chopin, Fryderyk
!!!OTL: Mazurka No. 3.
!!!OPS: Op. 33.
!!!OPR: Quatre Mazurkas
!!!OCL: Maurice Schlesinger
!!!AFR: mazurka
!!!NIFC-rismID: 300605146
!!!OMD: Vivace.
!!!system-decoration: {(s1,s2)}
**kern	**kern	**dynam
*part1	*part1	*part1
*staff2	*staff1	*
*clefF4	*clefG2	*
*k[f#c#]	*k[f#c#]	*
*D:	*D:	*
*M3/4	*M3/4	*
*>[A,B,B1,B2,C]	*	*
*>A	*>A	*
4r	[>4a^>	f
=1	=1	=1
*	*^	*
*ped	*	*	*
4D	(>8aL]	4f#	.
.	8cc#	.	.
4d 4A 4D	8dd	4f#	.
.	8ee	.	.
4d 4A 4D	8ff#	4f#	.
*Xped	*	*	*
.	8ggJ	.	.
=2	=2	=2	=2
.	16qff#/L	.	.
.	16qgg/J	.	.
*ped	*	*	*
4AA'	4ff#	4r	.
4c# 4A 4E	8eeL	4g	.
.	8dd	.	.
4c#^ 4A 4E	8cc#	4g	.
*Xped	*	*	*
.	8bJ	.	.
=3	=3	=3	=3
*ped	*	*	*
4DD'	8aL/	4ryy	.
.	8ddJ	.	.
4d 4A 4D	12ddL	4f#	.
.	12ee	.	.
!	!LO:TX:b:t=1:problem:'3' pod nutami	!	!
.	12ddJ	.	.
4d 4A 4D	8cc#L	4f#	.
*Xped	*	*	*
.	8bJ)	.	.
=4	=4	=4	=4
*ped	*	*	*
4AA'	(>2.cc#^	4r	.
4A	.	4a 4e	.
*Xped	*	*	*
4e 4A	.	4a 4g)	.
=5	=5	=5	=5
*ped	*	*	*
4D	(>8aL	4r	.
.	8cc#	.	.
4d 4A	8dd	4f#	.
.	8ee	.	.
4d^ 4A 4D	8ff#	4f#	.
*Xped	*	*	*
.	8ggJ	.	.
=6	=6	=6	=6
!!linebreak:original
.	16qff#/L	.	.
.	16qgg/J	.	.
*ped	*	*	*
4GG'	4ff#	4r	.
4e 4B	8eeL	4g	.
.	8dd	.	.
4e^ 4B 4E	8cc#	4g	.
*Xped	*	*	*
.	8bJ)	.	.
=7	=7	=7	=7
*ped	*	*	*
4AA	(>8aL/	4ryy	.
.	8cc#J	.	.
4e 4A	12cc#L	4g	.
.	12dd	.	.
!	!LO:TX:b:t=2:problem:'3' pod nutami	!	!
.	12cc#J	.	.
4e 4A	8bL	4g	.
*Xped	*	*	*
.	8aJ)	.	.
=8	=8	=8	=8
*ped	*	*	*
4DD	2.dd^	4r	.
4d 4A 4D	.	4f#	.
[>4d [>4A [<4D	.	[>4f#	.
*Xped	*	*	*
.	.	.	.
=9	=9	=9	=9
*ped	*	*	*
4d] 4A] 4D]	(>8aL	4f#]	pp
.	8cc#	.	.
4d 4A 4D	8dd	4f#	.
.	8ee	.	.
4d 4A 4D	8ff#	4f#	.
*Xped	*	*	*
.	8ggJ	.	.
=10	=10	=10	=10
.	16qff#/L	.	.
.	16qgg/J	.	.
*ped	*	*	*
4AA	4ff#	4r	.
4c# 4A 4E	8eeL	4g	.
.	8dd	.	.
4c# 4A 4E	8cc#	4g	.
*Xped	*	*	*
.	8bJ)	.	.
=11	=11	=11	=11
!!linebreak:original
*ped	*	*	*
4DD'	(>8aL	4r	.
.	8ddJ	.	.
4d 4A 4D	12ddL	4f#	.
.	12ee	.	.
!	!LO:TX:b:t=3:problem:'3' pod nutami	!	!
.	12ddJ	.	.
4d 4A 4D	8cc#L	4f#	.
*Xped	*	*	*
.	8bJ)	.	.
=12	=12	=12	=12
*ped	*	*	*
4AA'	(>2.cc#^	4r	.
4c# 4A	.	4a 4e	.
*Xped	*	*	*
4e [>4A	.	4a 4g)	.
=13	=13	=13	=13
*ped	*	*	*
4A] 4D	(>8aL	4r	.
.	8cc#	.	.
4d 4A	8dd	4f#	.
.	8ee	.	.
4d 4A 4D	8ff#	4f#	.
*Xped	*	*	*
.	8ggJ	.	.
=14	=14	=14	=14
.	16qff#/L	.	.
.	16qgg/J	.	.
*ped	*	*	*
4GG	4ff#	4r	.
4e 4B	8eeL	4g	.
.	8dd	.	.
4e 4B 4E	8cc#	4g	.
*Xped	*	*	*
.	8bJ)	.	.
=15	=15	=15	=15
*	*Xtuplet	*	*
*ped	*	*	*
4AA	(>8aL	4r	.
.	8cc#J	.	.
4e 4A	12cc#L	4g	.
.	12dd	.	.
.	12cc#J	.	.
4e 4A	8bL	4g	.
*Xped	*	*	*
.	8aJ)	.	.
*	*tuplet	*	*
=16	=16	=16	=16
!!linebreak:original
*ped	*	*	*
!	!LO:TX:a:t=4:problem:łuk zaczyna się przed nutą 2.dd	!	!
4DD'	(>2.dd^	4r	.
4d 4A 4D	.	4f#	.
*Xped	*	*	*
4d 4A 4D	.	4f#)	.
=17	=17	=17	=17
*ped	*	*	*
!	!LO:TX:b:t=5:problem:w źródle znak forte przed pauzą 	!	!
4AA	(>8eL	4r	f
.	8g#X	.	.
4A 4E 4AA	8a	4c#	.
.	8b	.	.
4A^ 4E 4AA	8cc#	4c#	.
*Xped	*	*	*
.	8ddJ	.	.
=18	=18	=18	=18
.	16qcc#/L	.	.
.	16qdd/J	.	.
*ped	*	*	*
4EE	4cc#	4r	.
4B 4E	8bL	4d	.
.	8a	.	.
4B^ 4E	8g	4d	.
*Xped	*	*	*
.	8f#XJ)	.	.
=19	=19	=19	=19
*	*ped	*	*
4AAA	(>8eL	4r	.
.	8aJ	.	.
4A 4E 4AA	12aL	4c#	.
.	12b	.	.
!	!LO:TX:b:t=6:problem:'3' pod nutami	!	!
.	12aJ	.	.
4A^ 4E 4AA	8g#XL	4c#	.
*	*Xped	*	*
.	8f#J)	.	.
=20	=20	=20	=20
*ped	*	*	*
!LO:TX:b:t=7:problem:w źródle nuta 4EE wygląda jak 4FF#	!	!	!
4EE	2.g#X^	4r	.
4E	.	4e 4B	.
*Xped	*	*	*
4B^ 4E	.	4e 4d	.
=21	=21	=21	=21
*ped	*	*	*
4AA'	(>8eL	4r	.
.	8g#X	.	.
4A 4E	8a	4c#	.
.	8b	.	.
4A^ 4E 4AA	8cc#	4c#	.
*Xped	*	*	*
.	8ddJ	.	.
=22	=22	=22	=22
!!linebreak:original
.	16qcc#/L	.	.
.	16qdd/J	.	.
*ped	*	*	*
4DD'	4cc#	4r	.
4B 4F#	8bL	4d	.
.	8a	.	.
4B^ 4F# 4BB	8g#X	4d	.
*Xped	*	*	*
.	8f#J)	.	.
=23	=23	=23	=23
*	*Xtuplet	*	*
*ped	*	*	*
4EE'	(>8eL	4r	.
.	8g#XJ	.	.
4B 4E	12g#L	4d	.
.	12a	.	.
.	12g#J	.	.
4B^ 4E	8f#L	4d	.
*Xped	*	*	*
.	8eJ)	.	.
*	*tuplet	*	*
=24	=24	=24	=24
*	*ped	*	*
4AAA'	2.a^	4r	.
4A 4E 4AA	.	4c#	.
[>4A^ [>4E [<4AA	.	[>4c#	.
*	*Xped	*	*
.	.	.	.
=25	=25	=25	=25
*ped	*	*	*
4A] 4E] 4AA]	(>8eL	4c#]	.
.	8g#X	.	pp
4A 4E 4AA	8a	4c#	.
.	8b	.	.
4A 4E 4AA	8cc#	4c#	.
*Xped	*	*	*
.	8ddJ	.	.
=26	=26	=26	=26
.	16qcc#/L	.	.
.	16qdd/J	.	.
*ped	*	*	*
4EE	4cc#	4r	.
4B 4E	8bL	4d	.
.	8a	.	.
4B^ 4E	8g#X	4d	.
*Xped	*	*	*
.	8f#J)	.	.
=27	=27	=27	=27
!!linebreak:original
*	*ped	*	*
4AAA	(>8eL	4r	.
.	8aJ	.	.
4A 4E 4AA	12aL	4c#	.
.	12b	.	.
!	!LO:TX:b:t=8:problem:'3' pod nutami	!	!
.	12aJ	.	.
4A^ 4E 4AA	8g#XL	4c#	.
*	*Xped	*	*
.	8f#J)	.	.
=28	=28	=28	=28
*ped	*	*	*
4EE	(>2.g#X^	4r	.
4E	.	4e 4B	.
4B^ 4E	.	4e 4d)	.
=29	=29	=29	=29
4AA'	(>8eL	4r	.
.	8g#X	.	.
4A 4E	8a	4c#	.
.	8b	.	.
4A^ 4E 4AA	8cc#	4c#	.
*Xped	*	*	*
.	8ddJ	.	.
=30	=30	=30	=30
.	16qcc#/L	.	.
.	16qdd/J	.	.
*ped	*	*	*
4DD'	4cc#	4r	.
4B 4F#	8bL	4d	.
.	8a	.	.
4B^ 4F# 4BB	8g#X	4d	.
*Xped	*	*	*
.	8f#J)	.	.
=31	=31	=31	=31
*ped	*	*	*
4EE'	(>8eL	4r	.
.	8g#XJ	.	.
4B 4E	12g#L	4d	.
.	12a	.	.
!	!LO:TX:b:t=9:problem:'3' pod nutami	!	!
.	12g#J	.	.
4B 4E	8f#L	4d	.
*Xped	*	*	*
.	8eJ)	.	.
=32	=32	=32	=32
*	*ped	*	*
4AAA'	2.a^	4r	.
4e 4A	.	4c#	.
*	*Xped	*	*
4e 4A	.	4g 4c#	.
=33	=33	=33	=33
!!pagebreak:original
*ped	*	*	*
4D	(>8aL	4f#	ff
.	8cc#	.	.
4d 4A 4D	8dd	4f#	.
.	8ee	.	.
4d 4A 4D	8ff#	4f#	.
*Xped	*	*	*
.	8ggJ	.	.
=34	=34	=34	=34
.	16qff#/L	.	.
.	16qgg/J	.	.
*ped	*	*	*
4AA'	4ff#	4r	.
4c# 4A 4E	8eeL	4g	.
.	8dd	.	.
4c# 4A 4E	8cc#	4g	.
*Xped	*	*	*
.	8bJ)	.	.
=35	=35	=35	=35
*ped	*	*	*
4DD	(>8aL/	4ryy	.
.	8ddJ	.	.
4d 4A 4D	12ddL	4f#	.
.	12ee	.	.
!	!LO:TX:b:t=10:problem:'3' pod nutami	!	!
.	12ddJ	.	.
4d 4A 4D	8cc#L	4f#	.
*Xped	*	*	*
.	8bJ)	.	.
=36	=36	=36	=36
*ped	*	*	*
!	!LO:TX:a:t=11:problem:łuk zaczyna się przed nutą 2.cc#	!	!
4AA'	(>2.cc#^	4r	.
4A	.	4a 4e	.
*Xped	*	*	*
4e^ 4A	.	4a 4g)	.
=37	=37	=37	=37
*ped	*	*	*
4D	(>8aL	4r	.
.	8cc#	.	.
4d 4A	8dd	4f#	.
.	8ee	.	.
4d^ 4A 4D	8ff#	4f#	.
*Xped	*	*	*
.	8ggJ	.	.
=38	=38	=38	=38
!!linebreak:original
.	16qff#/L	.	.
.	16qgg/J	.	.
*ped	*	*	*
4GG	4ff#	4r	.
4e 4B	8eeL	4g	.
.	8dd	.	.
4e^ 4B 4E	8cc#	4g	.
*Xped	*	*	*
.	8bJ)	.	.
=39	=39	=39	=39
*ped	*	*	*
4AA	(>8aL/	4ryy	.
.	8cc#J	.	.
4e 4A	12cc#L	4g	.
.	12dd	.	.
!	!LO:TX:b:t=12:problem:'3' pod nutami	!	!
.	12cc#J	.	.
4e 4A	8bL	4g	.
*Xped	*	*	*
.	8aJ)	.	.
=40	=40	=40	=40
*ped	*	*	*
4DD	2.dd^	4r	.
4d 4A 4D	.	4f#	.
*Xped	*	*	*
4d [A 4D	.	4f#	.
=41	=41	=41	=41
*ped	*	*	*
4d 4A 4D	(>8aL	4f#	pp
.	8cc#	.	.
4d 4A 4D	8dd	4f#	.
.	8ee	.	.
4d 4A 4D	8ff#	4f#	.
*Xped	*	*	*
.	8ggJ	.	.
=42	=42	=42	=42
.	16qff#/L	.	.
.	16qgg/J	.	.
*ped	*	*	*
4AA	4ff#	4r	.
4c# 4A 4E	8eeL	4g	.
.	8dd	.	.
4c# 4A 4E	8cc#	4g	.
*Xped	*	*	*
.	8bJ)	.	.
=43	=43	=43	=43
!!linebreak:original
*ped	*	*	*
4DD	(>8aL	4r	.
.	8ddJ	.	.
4d 4A 4D	12ddL	4f#	.
.	12ee	.	.
!	!LO:TX:b:t=13:problem:'3' pod nutami	!	!
.	12ddJ	.	.
4d 4A 4D	8cc#L	4f#	.
*Xped	*	*	*
.	8bJ)	.	.
=44	=44	=44	=44
*ped	*	*	*
4AA	(>2.cc#^	4ryy	.
4c# 4A	.	4a 4e	.
*Xped	*	*	*
4e [>4A	.	4a 4g)	.
=45	=45	=45	=45
*ped	*	*	*
4A] 4D	(>8aL	4r	.
.	8cc#	.	.
4d 4A	8dd	4f#	.
.	8ee	.	.
4d 4A 4D	8ff#	4f#	.
*Xped	*	*	*
.	8ggJ	.	.
=46	=46	=46	=46
.	16qff#/L	.	.
.	16qgg/J	.	.
*ped	*	*	*
4GG	4ff#	4r	.
4e 4B	8eeL	4g	.
.	8dd	.	.
*Xped	*	*	*
4e 4B 4E	8cc#	4g	.
.	8bJ)	.	.
=47	=47	=47	=47
*	*Xtuplet	*	*
*ped	*	*	*
4AA	(>8aL	4r	.
.	8cc#J	.	.
4e 4A	12cc#L	4g	.
.	12dd	.	.
.	12cc#J	.	.
4e 4A	8bL	4g	.
*Xped	*	*	*
.	8aJ)	.	.
*	*tuplet	*	*
=48	=48	=48	=48
!!linebreak:original
4DD	[>2.dd	4r	.
4d 4A 4D	.	4f#	.
4d 4A 4D	.	4f#	.
*	*v	*v	*
=49	=49	=49
*k[b-e-]	*k[b-e-]	*
*	*^	*
*ped	*	*	*
4BB-	(>8.ddL]	2f	<
.	16ddJk	.	.
4d 4B- 4F	4ee-	.	.
*Xped	*	*	*
4d 4B- 4F	4een	[>4b-	[
=50	=50	=50	=50
*ped	*	*	*
4FF	8.ggL	4b-]	>
.	16ffJk	.	.
4e- 4c 4F	4cc	8aL	]
.	.	8gJ	.
*Xped	*	*	*
4e- 4A 4F	4cc)	[>4f	.
=51	=51	=51	=51
*ped	*	*	*
4BB-	(>8.ddL	4f]	.
.	16ddJk	.	.
4d 4B- 4F	4ee-	4b- 4f	.
*Xped	*	*	*
4d 4B- 4F	4een	4b- [<4f	.
=52	=52	=52	=52
*ped	*	*	*
4AA	4cc\ 4f]	8.gg/L	.
.	.	16ffJ	.
!	!	!LO:N:vis=2	!
8.c 8.AL	4f\	4cc/	.
16GGJ	.	.	.
4FF	4a\	4ff/)	.
*Xped	*	*	*
.	.	.	.
*	*v	*v	*
=53	=53	=53
!!linebreak:original
*ped	*	*
4C 4CC	(>8bb-L 8een 8b-	f
.	16r	.
.	16bb-Jk 16ee 16b-	.
4g 4c	4bb- 4ee 4b-	.
*Xped	*	*
4r	4bb- 4ee 4b-	.
=54	=54	=54
*ped	*	*
8FF'L	8bb-L 8ff 8b-	.
16r	16r	.
(>16Bnk	16bb-Jk 16ff 16b-	.
8.c	4bb- 4ff 4b-	.
16d-XJk	.	.
*Xped	*	*
4c)	4aa 4ff 4a)	.
=55	=55	=55
*ped	*	*
8C'L	(>8aaL 8een 8b-	.
16r	16r	.
(>16Bnk	16aaJk 16ee 16b-	.
8.c	4aa 4ee 4b-	.
16dnyJk	.	.
*Xped	*	*
4c)	4gg 4ee 4b-)	.
=56	=56	=56
*ped	*	*
8FL	(>8ggL 8ee-X 8b-	.
16r	16r	.
(>16Bnk	16ggJk 16ee- 16b-	.
8.c	4gg 4ee- 4a	.
16enJk	.	.
*Xped	*	*
4f)	4ff 4ee- 4a)	.
=57	=57	=57
*	*^	*
*ped	*	*	*
4BB-	(>8.ddL	4r	.
.	16ddJk	.	.
4d 4B- 4F	4ee-	4b- 4f	.
4d 4B- 4F	4een	4b- 4f	.
*Xped	*	*	*
.	.	.	.
=58	=58	=58	=58
!!pagebreak:original
*ped	*	*	*
4AA	8.gg-XL	4r	.
.	16ffJk	.	.
4e- 4F	4cc	(<8.fL	.
.	.	16g-XJk	.
*Xped	*	*	*
4e- 4F	4cc)	4f)	.
=59	=59	=59	=59
*ped	*	*	*
4BB-	(>8.dd-XL	4r	.
.	16dd-Jk	.	.
4d-X 4B- 4F	4ee-	4b- 4f	.
*Xped	*	*	*
4d- 4B- 4F	4een	4b- 4f	.
=60	=60	=60	=60
*ped	*	*	*
4AA-X	8.gg-XL/	4ryy	<
.	16ffJk	.	.
!	!LO:TX:a:t=14:problem:w źródle nuta 4aa- wygląda jak 4gg-	!	!
8.f 8.d-X 8.A-X 8.FL	2ryy	4aa-X 4dd-X 4a-X	.
(>16BB-J	.	.	.
*Xped	*	*	*
4AA-)\	.	4ddd-X 4dd-)	fz
*	*v	*v	*
=61	=61	=61
*ped	*	*
4AAA-X	8gg-XL 8cc 8g-X	ff
.	16r	.
.	(>16gg-Jk 16cc 16g-	.
4e- 4A-X	4gg- 4cc 4g-	.
*Xped	*	*
4r	4gg- 4cc 4g-)	.
=62	=62	=62
*ped	*	*
!LO:TX:b:t=15:problem:znak pedalizacji przed nutą	!	!
8DD-XL	8gg-XL 8dd-X 8g-X	.
16r	16r	.
(>16Gn	(>16gg-Jk 16dd- 16g-	.
8.A	4gg- 4dd- 4g-	.
16B-Jk	.	.
*Xped	*	*
4A)	4ff 4dd- 4f)	.
=63	=63	=63
!!linebreak:original
*ped	*	*
8AA-X'L	8ffL 8cc 8g-X	.
16r	16r	.
(>16Gnk	(>16ffJk 16cc 16g-	.
8.A-X	4ff 4cc 4g-	.
16B-XJk	.	.
*Xped	*	*
4A-)	4ee- 4cc 4g-)	.
=64	=64	=64
*	*^	*
*ped	*	*	*
8D-XL	8ee-L 8g-X	4ryy	.
16r	16r	.	.
(>16Gnk	(>16ee-Jk 16a-X 16g-	.	.
8.A-X	4ee- 4g-\	2a-	.
16cJk	.	.	.
4d-X)	4dd-X 4f\)	.	.
=65!|:	=65!|:	=65!|:	=65!|:
*>B	*>B	*>B	*
*	*	*^	*
*ped	*	*	*	*
4EE#X	4ryy	12ddnL (<12g#X/	4ryy	f
!	!	!LO:TX:b:t=16:problem:'3' pod nutami	!	!
.	.	12d	.	.
.	.	N[>12ddJ [<12g#)	.	.
4Bn^ 4E#X	4ddN]	2g#]	4d\	.
*Xped	*	*	*	*
4B 4E#	4dd^	.	4d\	.
=66	=66	=66	=66	=66
*ped	*	*	*	*
4FF#X	4ryy	12ddL (<12a/	4ryy	.
.	.	12d	.	.
!	!	!LO:TX:b:t=17:problem:'3' pod nutami	!	!
.	.	N[>12ddJ [<12a)	.	.
4A^ 4F#X	(>4.ddN]	2a]	4.d\	.
*Xped	*	*	*	*
4A 4F#	.	.	.	.
.	8cc#X)	.	8c#X\	.
=67	=67	=67	=67	=67
*ped	*	*	*	*
4EE#X	4ryy	12ddL (<12g#X/	4ryy	.
.	.	12d	.	.
!	!	!LO:TX:b:t=18:problem:'3' pod nutami	!	!
.	.	N[>12ddJ [<12g#)	.	.
4Bn^ 4E#X	4ddN]	2g#]	4d\	.
4B 4E#	4dd^	.	4d\	.
=68	=68	=68	=68	=68
!!linebreak:original
*ped	*	*	*	*
4FF#X	4ryy	12ddL (<12a/	4ryy	.
!	!	!LO:TX:b:t=19:problem:'3' pod nutami	!	!
.	.	12d	.	.
.	.	N[>12ddJ [<12a)	.	.
4A^ 4F#X	4.ddN]	2a]	4.d\	.
*Xped	*	*	*	*
4A 4F#	.	.	.	.
.	8cc#X	.	8c#X\	.
=69	=69	=69	=69	=69
*ped	*	*	*	*
4EEn	4ryy	12ddL (<12g#X/	4ryy	.
.	.	12d	.	.
!	!	!LO:TX:b:t=20:problem:'3' pod nutami	!	!
.	.	N[>12ddJ [<12g#)	.	.
4Bn 4E-	[>4ddN]	2g#]	4d\	.
*Xped	*	*	*	*
4B 4E-	4dd^]	.	4d\	.
=70	=70	=70	=70	=70
*	*	*Xtuplet	*	*
*ped	*	*	*	*
4AA	4ryy	12ddL (<12a/	4ryy	.
.	.	12d	.	.
.	.	N[>12ddJ [<12a)	.	.
4A^ 4En	4.ddN]	2a]	4.d\	.
*Xped	*	*	*	*
4A 4E	.	.	.	.
.	8cc#X	.	8c#X\	.
*	*	*tuplet	*	*
=71	=71	=71	=71	=71
*ped	*	*	*	*
4EEn	4ryy	12ddL (<12g#X/	4ryy	.
!	!	!LO:TX:b:t=21:problem:'3' pod nutami	!	!
.	.	12d	.	.
.	.	N[>12ddJ [<12g#)	.	.
4Bn 4En	4ddN]	2g#]	4d\	.
*Xped	*	*	*	*
4B 4E	4dd^	.	4d\	.
=72	=72	=72	=72	=72
*>B1	*>B1	*>B1	*>B1	*
*ped	*	*	*	*
4AA	4ryy	12ddL (<12a/	4ryy	.
!	!	!LO:TX:b:t=22:problem:'3' pod nutami	!	!
.	.	12d	.	.
!	!LO:TX:a:t=1ma. Volta.	!	!	!
.	.	12ddJ 12a)	.	.
4A^ 4En	(>4.dd	2a	4.d\	.
*Xped	*	*	*	*
4A 4E	.	.	.	.
.	8cc#X)	.	8c#X\	.
=73:|	=73:|	=73:|	=73:|	=73:|
!!linebreak:original
*>B2	*>B2	*>B2	*>B2	*
*	*	*Xtuplet	*	*
*ped	*	*	*	*
4AA	4ryy	12ddL 12gn/	4ryy	.
.	.	12d	.	.
!	!LO:TX:a:t=2da. Volta.	!	!	!
.	.	N[>12ddJ [>12g	.	.
4en 4A	4.ddN]	2g]	4d\	.
4e 4A	.	.	4c#X\	.
*Xped	*	*	*	*
.	8cc#X	.	.	.
*	*	*tuplet	*	*
*	*v	*v	*v	*
=74	=74	=74
*>C	*>C	*
*k[f#c#]	*k[f#c#]	*
*	*^	*
*ped	*	*	*
4D	(>8aL	4r	.
.	8cc#	.	.
4d 4A 4D	8dd	4f#	.
.	8ee	.	.
4d^ 4A 4D	8ff#	4f#	.
*Xped	*	*	*
.	8ggJ	.	.
=75	=75	=75	=75
.	16qff#/L	.	.
.	16qgg/J	.	.
*ped	*	*	*
4AA	4ff#	4r	.
4c# 4A 4E	8eeL	4g	.
.	8dd	.	.
4c# 4A 4E	8cc#	4g	.
*Xped	*	*	*
.	8bJ)	.	.
=76	=76	=76	=76
*ped	*	*	*
4DD	(>8aL/	4ryy	.
.	8ddJ	.	.
4d 4A 4D	12ddL	4f#	.
.	12ee	.	.
!	!LO:TX:b:t=23:problem:'3' pod nutami	!	!
.	12ddJ	.	.
*Xped	*	*	*
4d 4A 4D	8cc#L	4f#	.
.	8bJ)	.	.
=77	=77	=77	=77
*ped	*	*	*
!	!LO:TX:a:t=24:problem:łuk zaczyna się przed nutą 2.cc#	!	!
4AA	(>2.cc#^	4r	.
4A	.	4a 4e	.
*Xped	*	*	*
4e^ 4A	.	4a 4g)	.
=78	=78	=78	=78
*ped	*	*	*
4D	(>8aL	4r	.
.	8cc#	.	.
4d 4A	8dd	4f#	.
.	8ee	.	.
*Xped	*	*	*
4d^ 4A 4D	8ff#	4f#	.
.	8ggJ	.	.
=79	=79	=79	=79
!!linebreak:original
.	16qff#/L	.	.
.	16qgg/J	.	.
*ped	*	*	*
4GG'	4ff#	4r	.
4e 4B	8eeL	4g	.
.	8dd	.	.
4e^ 4B 4E	8cc#	4g	.
*Xped	*	*	*
.	8bJ)	.	.
=80	=80	=80	=80
*ped	*	*	*
4AA	(>8aL/	4ryy	.
.	8cc#J	.	.
4e 4A	12cc#L	4g	.
.	12dd	.	.
!	!LO:TX:b:t=25:problem:'3' pod nutami	!	!
.	12cc#J	.	.
*Xped	*	*	*
4e 4A	8bL	4g	.
.	8aJ)	.	.
=81	=81	=81	=81
*ped	*	*	*
4DD	2.dd^	4r	.
4d 4A 4D	.	4f#	.
*Xped	*	*	*
[>4d [>4A [<4D	.	[>4f#	.
=82	=82	=82	=82
*ped	*	*	*
4d] 4A] 4D]	(>8aL	4f#]	pp
.	8cc#	.	.
4d 4A 4D	8dd	4f#	.
.	8ee	.	.
4d 4A 4D	8ff#	4f#	.
*Xped	*	*	*
.	8ggJ	.	.
=83	=83	=83	=83
.	16qff#/L	.	.
.	16qgg/J	.	.
*ped	*	*	*
4AA	4ff#	4r	.
4c# 4A 4E	8eeL	4g	.
.	8dd	.	.
4c# 4A 4E	8cc#	4g	.
*Xped	*	*	*
.	8bJ)	.	.
=84	=84	=84	=84
*ped	*	*	*
4DD	(>8aL	4r	.
.	8ddJ	.	.
4d 4A 4D	12ddL	4f#	.
.	12ee	.	.
!	!LO:TX:b:t=26:problem:'3' pod nutami	!	!
.	12ddJ	.	.
4d 4A 4D	8cc#L	4f#	.
*Xped	*	*	*
.	8bJ)	.	.
=85	=85	=85	=85
!!pagebreak:original
*ped	*	*	*
!	!LO:TX:a:t=27:problem:łuk zaczyna się przed nutą 2.cc#	!	!
4AA'	(>2.cc#^	4r	.
4c# 4A	.	4a 4e	.
*Xped	*	*	*
4e [>4A	.	4a 4g)	.
=86	=86	=86	=86
*ped	*	*	*
4A] 4D	(>8aL	4r	.
.	8cc#	.	.
4d 4A	8dd	4f#	.
.	8ee	.	.
4d 4A 4D	8ff#	4f#	.
*Xped	*	*	*
.	8ggJ	.	.
=87	=87	=87	=87
.	16qff#/L	.	.
.	16qgg/J	.	.
*ped	*	*	*
4GG	4ff#	4r	.
4e 4B	8eeL	4g	.
.	8dd	.	.
4e 4B 4E	8cc#	4g	.
.	8bJ)	.	.
=88	=88	=88	=88
*ped	*	*	*
4AA	(>8aL	4r	.
.	8cc#J	.	.
4e 4A	12cc#L	4g	.
.	12dd	.	.
!	!LO:TX:b:t=28:problem:'3' pod nutami	!	!
.	12cc#J	.	.
4e 4A	8bL	4f#	.
*Xped	*	*	*
.	8aJ)	.	.
=89	=89	=89	=89
*ped	*	*	*
4DD'	(>2.dd^	4r	.
4d 4A 4D	.	4f#	.
*Xped	*	*	*
4d 4A 4D	.	4f#)	.
=90	=90	=90	=90
*ped	*	*	*
4AA	(>8eL	4r	f
.	8g#X	.	.
4A 4E 4AA	8a	4c#	.
.	8b	.	.
4A 4E 4AA	8cc#	4c#	.
*Xped	*	*	*
.	8ddJ	.	.
=91	=91	=91	=91
!!linebreak:original
.	16qcc#/L	.	.
.	16qdd/J	.	.
*ped	*	*	*
4EE	4cc#	4r	.
4B 4E	8bL	4d	.
.	8a	.	.
4B^ 4E	8g#X	4d	.
*Xped	*	*	*
.	8f#J)	.	.
=92	=92	=92	=92
*ped	*	*	*
!LO:TX:b:t=29:problem:znak pedalizacji przed nutą	!	!	!
4AAA	(>8eL	4r	.
.	8aJ	.	.
4A 4E 4AA	12aL	4c#	.
.	12b	.	.
!	!LO:TX:b:t=30:problem:'3' pod nutami	!	!
.	12aJ	.	.
4A^ 4E 4AA	8g#XL	4c#	.
*Xped	*	*	*
.	8f#J)	.	.
=93	=93	=93	=93
*ped	*	*	*
!	!LO:TX:a:t=31:problem:łuk zaczyna się przed nutą 2.g#	!	!
4EE	(>2.g#X^	4r	.
4E	.	4e 4B	.
4B^ 4E	.	4e 4d)	.
*Xped	*	*	*
.	.	.	.
=94	=94	=94	=94
*ped	*	*	*
4AA	(>8eL	4r	.
.	8g#X	.	.
4A 4E	8a	4c#	.
.	8b	.	.
4A^ 4E 4AA	8cc#	4c#	.
*Xped	*	*	*
.	8ddJ	.	.
=95	=95	=95	=95
.	16qcc#/L	.	.
.	16qdd/J	.	.
*ped	*	*	*
4DD	4cc#	4r	.
4B 4F#	8bL	4d	.
.	8a	.	.
4B 4F# 4BB	8g#X	4d	.
*Xped	*	*	*
.	8f#J)	.	.
=96	=96	=96	=96
!!linebreak:original
*ped	*	*	*
4EE'	(>8eL	4r	.
.	8g#XJ	.	.
4B 4E	12g#L	4d	.
.	12a	.	.
!	!LO:TX:b:t=32:problem:'3' pod nutami	!	!
.	12g#J	.	.
*Xped	*	*	*
4B^ 4E	8f#L	4d	.
.	8eJ)	.	.
=97	=97	=97	=97
*ped	*	*	*
!LO:TX:b:t=33:problem:znak pedalizacji przed nutą	!	!	!
4AAA	2.a^	4r	.
4A 4E 4AA	.	4c#	.
[>4A^ [>4E [<4AA	.	[>4c#	.
*Xped	*	*	*
=98	=98	=98	=98
*ped	*	*	*
4A] 4E] 4AA]	(>8eL	4c#]	.
.	8g#X	.	.
4A 4E 4AA	8a	4c#	.
.	8b	.	.
4A 4E 4AA	8cc#	4c#	.
*Xped	*	*	*
.	8ddJ	.	.
=99	=99	=99	=99
.	16qcc#/L	.	.
.	16qdd/J	.	.
*ped	*	*	*
4EE	4cc#	4r	.
4B 4E	8bL	4d	.
.	8a	.	.
*Xped	*	*	*
4B^ 4E	8g#X	4d	.
.	8f#J)	.	.
=100	=100	=100	=100
*ped	*	*	*
!LO:TX:b:t=34:problem:znak pedalizacji przed nutą	!	!	!
4AAA	(>8eL	4r	.
.	8aJ	.	.
4A 4E 4AA	12aL	4c#	.
.	12b	.	.
!	!LO:TX:b:t=35:problem:'3' pod nutami	!	!
.	12aJ	.	.
4A^ 4E 4AA	8g#XL	4c#	.
*Xped	*	*	*
.	8f#J)	.	.
=101	=101	=101	=101
*ped	*	*	*
!	!LO:TX:a:t=36:problem:łuk zaczyna się przed nutą 2.g#	!	!
4EE	(>2.g#X^	4r	.
4E	.	4e 4B	.
4B^ [4E	.	4e 4d)	.
*Xped	*	*	*
.	.	.	.
=102	=102	=102	=102
!!linebreak:original
*ped	*	*	*
4AA'	(>8eL	4r	.
.	8g#X	.	.
4A 4E	8a	4c#	.
.	8b	.	.
4A^ 4E 4AA	8cc#	4c#	.
.	8ddJ	.	.
*Xped	*	*	*
=103	=103	=103	=103
.	16qcc#/L	.	.
.	16qdd/J	.	.
*ped	*	*	*
4DD'	4cc#	4r	.
4B 4F#	8bL	4d	.
.	8a	.	.
4B^ 4F# 4BB	8g#X	4d	.
*Xped	*	*	*
.	8f#J)	.	.
=104	=104	=104	=104
*ped	*	*	*
4EE'	(>8eL	4r	.
.	8g#XJ	.	.
4B 4E	(<12g#L	4d	.
.	12a	.	.
!	!LO:TX:b:t=37:problem:'3' pod nutami	!	!
.	12g#J)	.	.
4B^ 4E	8f#L	4d	.
*Xped	*	*	*
.	8eJ)	.	.
=105	=105	=105	=105
*ped	*	*	*
!LO:TX:b:t=38:problem:znak pedalizacji przed nutą	!	!	!
4AAA'	2.a^	4r	.
4e 4A	.	4c#	.
4e 4A	.	(>4g 4c#	.
*Xped	*	*	*
.	.	.	.
=106	=106	=106	=106
*ped	*	*	*
4D	(>8aL	4f#)	ff
.	8cc#	.	.
4d 4A 4D	8dd	4f#	.
.	8ee	.	.
4d 4A 4D	8ff#	4f#	.
*Xped	*	*	*
.	8ggJ	.	.
=107	=107	=107	=107
!!linebreak:original
.	16qff#/L	.	.
.	16qgg/J	.	.
*ped	*	*	*
4AA	4ff#	4r	.
4c# 4A 4E	8eeL	4g	.
.	8dd	.	.
4c#^ 4A 4E	8cc#	4g	.
*Xped	*	*	*
.	8bJ)	.	.
=108	=108	=108	=108
*ped	*	*	*
4DD	(>8aL/	4ryy	.
.	8ddJ	.	.
4d 4A 4D	(<12ddL	4f#	.
.	12ee	.	.
!	!LO:TX:b:t=39:problem:'3' pod nutami	!	!
.	12ddJ)	.	.
4d 4A 4D	8cc#L	4f#	.
*Xped	*	*	*
.	8bJ)	.	.
=109	=109	=109	=109
*ped	*	*	*
!	!LO:TX:a:t=40:problem:łuk zaczyna się przed nutą 2.cc#	!	!
4AA'	(>2.cc#^	4r	.
4A	.	4a 4e	.
4e^ 4A	.	4a 4g)	.
*Xped	*	*	*
.	.	.	.
=110	=110	=110	=110
*ped	*	*	*
4D	8aL	4r	.
.	8cc#	.	.
4d 4A	8dd	4f#	.
.	8ee	.	.
4d^ 4A 4D	8ff#	4f#	.
*Xped	*	*	*
.	8ggJ	.	.
=111	=111	=111	=111
.	16qff#/L	.	.
.	16qgg/J	.	.
*ped	*	*	*
4GG'	4ff#	4r	.
4e 4B	8eeL	4g	.
.	8dd	.	.
4e^ 4B 4E	8cc#	4g	.
*Xped	*	*	*
.	8bJ	.	.
=112	=112	=112	=112
!!pagebreak:original
*ped	*	*	*
4AA	(>8aL/	4ryy	.
.	8cc#J	.	.
4e 4A	12cc#L	4g	.
.	12dd	.	.
!	!LO:TX:b:t=41:problem:'3' pod nutami	!	!
.	12cc#J	.	.
4e 4A	8bL	4g	.
*Xped	*	*	*
.	8aJ)	.	.
=113	=113	=113	=113
*ped	*	*	*
4DD	2.dd^	4r	.
4d 4A 4D	.	4f#	.
[>4d [>4A [<4D	.	[>4f#	.
*Xped	*	*	*
.	.	.	.
=114	=114	=114	=114
*ped	*	*	*
4d] 4A] 4D]	(>8aL	4f#]	pp
.	8cc#	.	.
4d 4A 4D	8dd	4f#	.
.	8ee	.	.
4d 4A 4D	8ff#	4f#	.
*Xped	*	*	*
.	8ggJ	.	.
=115	=115	=115	=115
.	16qff#/L	.	.
.	16qgg/J	.	.
*ped	*	*	*
4AA	4ff#	4r	.
4c# 4A 4E	8eeL	4g	.
.	8dd	.	.
4c# 4A 4E	8cc#	4g	.
*Xped	*	*	*
.	8bJ)	.	.
=116	=116	=116	=116
*ped	*	*	*
4DD	(>8aL	4r	.
.	8ddJ	.	.
4d 4A 4D	12ddL	4f#	.
.	12ee	.	.
!	!LO:TX:b:t=42:problem:'3' pod nutami	!	!
.	12ddJ	.	.
4d 4A 4D	8cc#L	4f#	.
*Xped	*	*	*
.	8bJ)	.	.
=117	=117	=117	=117
!!linebreak:original
*ped	*	*	*
4AA	(>2.cc#^	4r	.
4c# 4A	.	4a 4e	.
4e [>4A	.	4a 4g)	.
*Xped	*	*	*
.	.	.	.
=118	=118	=118	=118
*ped	*	*	*
4A] 4D	(>8aL	4r	.
.	8cc#	.	.
4d 4A	8dd	4f#	.
.	8ee	.	.
4d 4A 4D	8ff#	4f#	.
*Xped	*	*	*
.	8ggJ	.	.
=119	=119	=119	=119
.	16qff#/L	.	.
.	16qgg/J	.	.
*ped	*	*	*
4GG	4ff#	4r	.
4e 4B	8eeL	4g	.
.	8dd	.	.
4e 4B 4E	8cc#	4g	.
*Xped	*	*	*
.	8bJ)	.	.
=120	=120	=120	=120
*ped	*	*	*
4AA	(>8aL	4r	.
.	8cc#J	.	.
4e 4A	12cc#L	4g	.
.	12dd	.	.
!	!LO:TX:b:t=43:problem:'3' pod nutami	!	!
.	12cc#J	.	.
4e 4A	8bL	4g	.
*Xped	*	*	*
.	8aJ)	.	.
=121	=121	=121	=121
*ped	*	*	*
4DD	(>2.dd^	4r	.
4d 4A 4D	.	4f#	.
4d 4A 4D	.	4f#)	.
*Xped	*	*	*
.	.	.	.
=122	=122	=122	=122
!!linebreak:original
4A 4D	2.dd	(>8f#L	.
.	.	8aJ)	.
!	!LO:TX:a:t=accelerando:dur=5w3q:ext=ud:problem:text with extention lines	!	!
4cn 4D	.	8aL	.
.	.	8qb/	.
.	.	8aJ	.
4B 4D	.	(>8g#XL	.
.	.	8e#XJ)	.
=123	=123	=123	=123
4G 4D	2.dd	8enL	.
.	.	8gnJ	.
4B-X 4D	.	8gL	.
.	.	8qa/	.
.	.	8gJ	.
4A 4D	.	(>8f#L	.
.	.	8dJ)	.
=124	=124	=124	=124
4A 4D	2.dd	(>8f#L	.
.	.	8aJ)	.
4cn 4D	.	8aL	.
.	.	8qb/	.
.	.	8aJ	.
4B 4D	.	(>8g#XL	.
.	.	8e#XJ)	.
=125	=125	=125	=125
4G 4D	2.dd	(>8enL	.
.	.	8gJ)	.
4B-X 4D	.	8gL	.
.	.	8qa/	.
.	.	8gJ	.
4A 4D	.	4f#	.
=126	=126	=126	=126
4F# 4D	2.a	(>8dL	.
.	.	8f#J)	.
4A 4D	.	8f#L	.
.	.	8qg/	.
.	.	8f#J	.
4G#X 4D	.	(>8eL	.
.	.	8BJ)	.
=127	=127	=127	=127
!!linebreak:original
4E 4D	2.a	(>8c#L	.
.	.	8eJ)	.
4Gn 4D	.	8eL	.
.	.	8qf#/	.
.	.	8eJ	.
4F# 4D	.	(>8dL	.
.	.	8AJ)	.
=128	=128	=128	=128
4F# 4D	2.a	(>8dL	.
.	.	8f#J)	.
4A 4D	.	8f#L	.
.	.	8qg/	.
.	.	8f#J	.
4G#X 4D	.	(>8eL	.
.	.	8BJ)	.
=129	=129	=129	=129
4E 4D	2.a	(>8c#L	.
.	.	8eJ)	.
4Gn 4D	.	8eL	.
.	.	8qf#/	.
.	.	8eJ	.
4F# 4D	.	(>8dL	.
.	.	8AJ)	.
=130	=130	=130	=130
!	!LO:TX:a:t=smorzando:dur=5wq:ext=ud:problem:text with extention lines	!	!
4AA\ 4DD\	2.d	(<8F#<L	.
!	!LO:TX:b:t=44:problem: przerywana linia od smorzando po dwóch taktach zmienia swoje położenie z góry na sródek między pięcioliniami	!	!
.	.	8A<J)	.
4Cn\ 4DD\	.	8A<L	.
.	.	8qB</	.
.	.	8A<J	.
4BB\ 4DD\	.	(<8G#X<L	.
.	.	8E#X<J)	.
=131	=131	=131	=131
4GG\ 4DD\	2.d	8En<L	.
.	.	8Gn<J	.
4BB-X\ 4DD\	.	8G<L	.
.	.	8qA</	.
.	.	8G<J	.
4AA\ 4DD\	.	8F#<L	.
.	.	8D<J	.
=132	=132	=132	=132
!!linebreak:original
4AA\ 4DD\	2.d	8F#<L	.
.	.	8A<J)	.
4Cn\ 4DD\	.	8A<L	.
.	.	8qB</	.
.	.	8A<J	.
4BB\ 4DD\	.	8G#X<L	.
.	.	8E#X<J	.
=133	=133	=133	=133
4GG\ 4DD\	2.d	(<8En<L	.
.	.	8Gn<J)	.
4BB-X\ 4DD\	.	8G<L	.
.	.	8qA</	.
.	.	8G<J	.
4AA\ 4DD\	.	<8F#<L	.
.	.	8D<J	.
*	*v	*v	*
=134	=134	=134
*ped	*	*
4AA 4DD\	4d 4A< 4D<	.
4A 4D	4a 4d	.
*clefG2	*	*
[4a [4d	(>8ddL	.
.	8aaJ	.
=135	=135	=135
*	*8va	*
2.a_ 2.d_	8ddd'L	<
.	8fff#'	.
.	8ggg#X'	.
.	8aaa'	.
.	8bbb'	.
.	8cccc#'J)	.
=136	=136	=136
2.a] 2.d;<]	2.dddd;	[
!	!LO:TX:a:t=Fine.	!
*	*X8va	*
*Xped	*	*
.	.	.
==	==	==
*-	*-	*-
!!title: @{OTL}; @{OPS} @{ONM} publisher: @{OCL}
!!!RDF**kern: > = above
!!!RDF**kern: < = below
!!!RDF**dynam: < = "cresc.", fontstyle="normal"
!!!RDF**kern: N = linked
!!!ENC: Wojciech Jakubiak-Danek
!!!END: 2018-06-06
!!!EED: Emilia Ziętek
!!!EST: revision finished 2018-06-09
!!!EED2: Jacek Iwaszko
!!!EST2: revision finished 2018-10-22
!!!EED3: Wojciech Jakubiak-Danek
!!!EST3: revision finished 2018-10-30